X:46
T:L'escloupeto
R:---
O:France
A:Auvergne
C:Trad.
I:abc2nwc
Z:Transcrit et/ou corrig? par Michel BELLON - 2007-11-26
Z:Pour toute observation mailto:galouvielle@free.fr
M:3/4
L:1/8
Q:3/4=80
K:C
c2 Bc de|f2 d2 g2|f2 g4|d6|c2 Bc de|
f2 d2 g2|f2 g4|d4g2|ag f2 e2|d3 e f2|
ed c2 d2|e2 d2 g2|ag f2 e2|d3 e f2|ed c2 B2|c6|]
<end>
<start>
